Newaita-dark/mimetypes/48/payment-card-jcb.svg

<svg height="48pt" viewBox="0 0 48 48" width="48pt" xmlns="http://www.w3.org/2000/svg" xmlns:xlink="http://www.w3.org/1999/xlink"><linearGradient id="a" gradientUnits="userSpaceOnUse" x1="23.814816" x2="23.814816" y1="39.07411469922" y2="9.30559221851"><stop offset="0" stop-color="#42a5f5"/><stop offset="1" stop-color="#64b5f6"/></linearGradient><linearGradient id="b" gradientUnits="userSpaceOnUse" x1="24.807067" x2="24.807067" y1="39.0740565" y2="41.05862231253"><stop offset="0" stop-opacity=".27451"/><stop offset="1" stop-opacity="0"/></linearGradient><linearGradient id="c"><stop offset="0" stop-opacity=".313725"/><stop offset=".222222" stop-opacity=".27451"/><stop offset="1" stop-opacity="0"/></linearGradient><radialGradient id="d" cx="450.90894" cy="189.57936" gradientTransform="matrix(.00000026 -.117199 -.210958 -.00000015 80.18054 92.416155)" gradientUnits="userSpaceOnUse" r="21.166656" xlink:href="#c"/><radialGradient id="e" cx="450.90894" cy="189.57936" gradientTransform="matrix(-.00000026 .117199 .210958 .00000015 -32.550992 -14.268065)" gradientUnits="userSpaceOnUse" r="21.166656" xlink:href="#c"/><radialGradient id="f" cx="450.90894" cy="189.57936" gradientTransform="matrix(-.00000026 -.117199 .210958 -.00000015 -32.550992 92.416155)" gradientUnits="userSpaceOnUse" r="21.166656" xlink:href="#c"/><radialGradient id="g" cx="450.90894" cy="189.57936" gradientTransform="matrix(.00000026 .117199 -.210958 .00000015 80.180537 -14.268066)" gradientUnits="userSpaceOnUse" r="21.166656" xlink:href="#c"/><linearGradient id="h" gradientUnits="userSpaceOnUse" x1="23.814786" x2="23.814786" y1="46.02003312506" y2="2.35959181253"><stop offset="0" stop-color="#bdbdbd"/><stop offset="1" stop-color="#e0e0e0"/></linearGradient><linearGradient id="i" gradientUnits="userSpaceOnUse" x1="32.74533075" x2="32.74533075" y1="39.07405325" y2="9.30557075"><stop offset="0" stop-color="#66bb6a"/><stop offset="1" stop-color="#81c784"/></linearGradient><linearGradient id="j" gradientUnits="userSpaceOnUse" x1="23.814786" x2="23.814786" y1="39.07405325" y2="9.30557075"><stop offset="0" stop-color="#f44336"/><stop offset="1" stop-color="#ef5350"/></linearGradient><linearGradient id="k" gradientUnits="userSpaceOnUse" x1="15.38038293753" x2="14.88424125" y1="39.07405325" y2="9.30557075"><stop offset="0" stop-color="#5c6bc0"/><stop offset="1" stop-color="#7986cb"/></linearGradient><path d="m23.816406 16.25c-4.398437 0-7.941406 3.542969-7.941406 7.941406 0 4.394532 3.542969 7.9375 7.941406 7.9375 4.394532 0 7.9375-3.542968 7.9375-7.9375 0-4.398437-3.542968-7.941406-7.9375-7.941406zm-2.480468 2.523438v10.832031c-2.054688-.9375-3.476563-3.003907-3.476563-5.414063 0-2.414062 1.421875-4.480468 3.476563-5.417968zm4.960937 0c2.050781.9375 3.472656 3.003906 3.472656 5.417968 0 2.410156-1.421875 4.476563-3.472656 5.414063zm0 0" fill="url(#a)"/><path d="m6.945312 39.074219h33.738282v1.984375h-33.738282zm0 0" fill="url(#b)"/><path d="m40.683594 39.074219h3.96875v-1.984375h-3.96875zm0 0" fill="url(#d)"/><path d="m6.945312 39.074219h-3.96875v1.984375h3.96875zm0 0" fill="url(#e)"/><path d="m6.945312 39.074219h-3.96875v-1.984375h3.96875zm0 0" fill="url(#f)"/><path d="m40.683594 39.074219h3.96875v1.984375h-3.96875zm0 0" fill="url(#g)"/><path d="m5.953125 9.304688h35.722656c1.097657 0 1.984375.890624 1.984375 1.984374v25.800782c0 1.09375-.886718 1.984375-1.984375 1.984375h-35.722656c-1.09375 0-1.984375-.890625-1.984375-1.984375v-25.800782c0-1.09375.890625-1.984374 1.984375-1.984374zm0 0" fill="url(#h)"/><path d="m5.953125 9.304688c-1.097656 0-1.984375.886718-1.984375 1.984374v.496094c0-1.097656.886719-1.984375 1.984375-1.984375h35.722656c1.097657 0 1.984375.886719 1.984375 1.984375v-.496094c0-1.097656-.886718-1.984374-1.984375-1.984374zm0 0" fill="#fff" fill-opacity=".588235"/><path d="m3.96875 36.609375v.480469c0 1.097656.886719 1.984375 1.984375 1.984375h35.722656c1.097657 0 1.984375-.886719 1.984375-1.984375v-.480469c0 1.101563-.886718 1.984375-1.984375 1.984375h-35.722656c-1.097656 0-1.984375-.882812-1.984375-1.984375zm0 0" fill-opacity=".235294"/><path d="m63.493937-115.759477h381.005282c11.707215 0 21.164646 9.499093 21.164646 21.164646v275.182054c0 11.665553-9.457431 21.164646-21.164646 21.164646h-381.005282c-11.665553 0-21.164646-9.499093-21.164646-21.164646v-275.182054c0-11.665553 9.499093-21.164646 21.164646-21.164646zm0 0" fill="none" stroke="#212121" stroke-linecap="round" stroke-linejoin="round" stroke-width="3" transform="matrix(.093759 0 0 .093759 0 20.158175)"/><path d="m32 15.753906c-1.375 0-2.480469 1.109375-2.480469 2.480469v13.894531h4.960938c1.375 0 2.480469-1.105468 2.480469-2.480468v-13.894532zm0 0" fill="url(#i)"/><path d="m22.574219 15.753906c-1.375 0-2.480469 1.109375-2.480469 2.480469v13.894531h4.960938c1.375 0 2.480468-1.105468 2.480468-2.480468v-13.894532zm0 0" fill="url(#j)"/><path d="m13.148438 15.753906c-1.375 0-2.480469 1.109375-2.480469 2.480469v13.894531h4.960937c1.375 0 2.480469-1.105468 2.480469-2.480468v-13.894532zm0 0" fill="url(#k)"/><g fill="none" stroke="#212121" stroke-linecap="round" stroke-linejoin="round" stroke-width="3" transform="matrix(.093759 0 0 .093759 0 20.158175)"><path d="m341.300741-46.974379c-14.665266 0-26.455807 11.832203-26.455807 26.455807v148.194181h52.911614c14.665266 0 26.455807-11.79054 26.455807-26.455806v-148.194182zm0 0"/><path d="m240.768674-46.974379c-14.665266 0-26.455807 11.832203-26.455807 26.455807v148.194181h52.911614c14.665267 0 26.455807-11.79054 26.455807-26.455806v-148.194182zm0 0"/><path d="m140.236608-46.974379c-14.665266 0-26.455807 11.832203-26.455807 26.455807v148.194181h52.911614c14.665266 0 26.455807-11.79054 26.455807-26.455806v-148.194182zm0 0"/></g></svg>

<svg xmlns="http://www.w3.org/2000/svg" xmlns:xlink="http://www.w3.org/1999/xlink" width="48px" height="48px" viewBox="0 0 48 48" version="1.1">
<defs>
<linearGradient id="linear0" gradientUnits="userSpaceOnUse" x1="31.753056" y1="52.098766" x2="31.753056" y2="12.407444" gradientTransform="matrix(0.75,0,0,0.75,0,0)">
<stop offset="0" style="stop-color:rgb(25.882354%,64.705884%,96.078432%);stop-opacity:1;"/>
<stop offset="1" style="stop-color:rgb(39.215687%,70.980394%,96.470588%);stop-opacity:1;"/>
</linearGradient>
<linearGradient id="linear1" gradientUnits="userSpaceOnUse" x1="33.076088" y1="52.098743" x2="33.076088" y2="54.744831" gradientTransform="matrix(0.75,0,0,0.75,0,0)">
<stop offset="0" style="stop-color:rgb(0%,0%,0%);stop-opacity:0.27451;"/>
<stop offset="1" style="stop-color:rgb(0%,0%,0%);stop-opacity:0;"/>
</linearGradient>
<radialGradient id="radial0" gradientUnits="userSpaceOnUse" cx="450.908936" cy="189.579361" fx="450.908936" fy="189.579361" r="21.166656" gradientTransform="matrix(0.0000002625,-0.117199,-0.210958,-0.00000015,80.18054,92.416157)">
<stop offset="0" style="stop-color:rgb(0%,0%,0%);stop-opacity:0.313725;"/>
<stop offset="0.222222" style="stop-color:rgb(0%,0%,0%);stop-opacity:0.27451;"/>
<stop offset="1" style="stop-color:rgb(0%,0%,0%);stop-opacity:0;"/>
</radialGradient>
<radialGradient id="radial1" gradientUnits="userSpaceOnUse" cx="450.908936" cy="189.579361" fx="450.908936" fy="189.579361" r="21.166656" gradientTransform="matrix(-0.0000002625,0.117199,0.210958,0.00000015,-32.550991,-14.268064)">
<stop offset="0" style="stop-color:rgb(0%,0%,0%);stop-opacity:0.313725;"/>
<stop offset="0.222222" style="stop-color:rgb(0%,0%,0%);stop-opacity:0.27451;"/>
<stop offset="1" style="stop-color:rgb(0%,0%,0%);stop-opacity:0;"/>
</radialGradient>
<radialGradient id="radial2" gradientUnits="userSpaceOnUse" cx="450.908936" cy="189.579361" fx="450.908936" fy="189.579361" r="21.166656" gradientTransform="matrix(-0.0000002625,-0.117199,0.210958,-0.00000015,-32.550991,92.416157)">
<stop offset="0" style="stop-color:rgb(0%,0%,0%);stop-opacity:0.313725;"/>
<stop offset="0.222222" style="stop-color:rgb(0%,0%,0%);stop-opacity:0.27451;"/>
<stop offset="1" style="stop-color:rgb(0%,0%,0%);stop-opacity:0;"/>
</radialGradient>
<radialGradient id="radial3" gradientUnits="userSpaceOnUse" cx="450.908936" cy="189.579361" fx="450.908936" fy="189.579361" r="21.166656" gradientTransform="matrix(0.0000002625,0.117199,-0.210958,0.00000015,80.18054,-14.268066)">
<stop offset="0" style="stop-color:rgb(0%,0%,0%);stop-opacity:0.313725;"/>
<stop offset="0.222222" style="stop-color:rgb(0%,0%,0%);stop-opacity:0.27451;"/>
<stop offset="1" style="stop-color:rgb(0%,0%,0%);stop-opacity:0;"/>
</radialGradient>
<linearGradient id="linear2" gradientUnits="userSpaceOnUse" x1="31.753048" y1="61.360043" x2="31.753048" y2="3.146122" gradientTransform="matrix(0.75,0,0,0.75,0,0)">
<stop offset="0" style="stop-color:rgb(74.117649%,74.117649%,74.117649%);stop-opacity:1;"/>
<stop offset="1" style="stop-color:rgb(87.843138%,87.843138%,87.843138%);stop-opacity:1;"/>
</linearGradient>
<linearGradient id="linear3" gradientUnits="userSpaceOnUse" x1="43.660442" y1="52.098736" x2="43.660442" y2="12.407427" gradientTransform="matrix(0.75,0,0,0.75,0,0)">
<stop offset="0" style="stop-color:rgb(40.000001%,73.333335%,41.568628%);stop-opacity:1;"/>
<stop offset="1" style="stop-color:rgb(50.588238%,78.039217%,51.764709%);stop-opacity:1;"/>
</linearGradient>
<linearGradient id="linear4" gradientUnits="userSpaceOnUse" x1="31.753048" y1="52.098736" x2="31.753048" y2="12.407427" gradientTransform="matrix(0.75,0,0,0.75,0,0)">
<stop offset="0" style="stop-color:rgb(95.686275%,26.274511%,21.176471%);stop-opacity:1;"/>
<stop offset="1" style="stop-color:rgb(93.725491%,32.549021%,31.37255%);stop-opacity:1;"/>
</linearGradient>
<linearGradient id="linear5" gradientUnits="userSpaceOnUse" x1="20.507177" y1="52.098736" x2="19.845655" y2="12.407427" gradientTransform="matrix(0.75,0,0,0.75,0,0)">
<stop offset="0" style="stop-color:rgb(36.078432%,41.960785%,75.294119%);stop-opacity:1;"/>
<stop offset="1" style="stop-color:rgb(47.450981%,52.549022%,79.607844%);stop-opacity:1;"/>
</linearGradient>
</defs>
<g id="surface1">
<path style=" stroke:none;fill-rule:nonzero;fill:url(#linear0);" d="M 23.816406 16.25 C 19.417969 16.25 15.875 19.792969 15.875 24.191406 C 15.875 28.589844 19.417969 32.128906 23.816406 32.128906 C 28.214844 32.128906 31.753906 28.589844 31.753906 24.191406 C 31.753906 19.792969 28.214844 16.25 23.816406 16.25 Z M 21.332031 18.773438 L 21.332031 29.605469 C 19.28125 28.667969 17.863281 26.601562 17.863281 24.191406 C 17.863281 21.777344 19.28125 19.710938 21.332031 18.773438 Z M 26.296875 18.773438 C 28.347656 19.710938 29.769531 21.777344 29.769531 24.191406 C 29.769531 26.601562 28.347656 28.667969 26.296875 29.605469 Z M 26.296875 18.773438 "/>
<path style=" stroke:none;fill-rule:nonzero;fill:url(#linear1);" d="M 6.945312 39.074219 L 40.683594 39.074219 L 40.683594 41.058594 L 6.945312 41.058594 Z M 6.945312 39.074219 "/>
<path style=" stroke:none;fill-rule:nonzero;fill:url(#radial0);" d="M 40.683594 39.074219 L 44.652344 39.074219 L 44.652344 37.089844 L 40.683594 37.089844 Z M 40.683594 39.074219 "/>
<path style=" stroke:none;fill-rule:nonzero;fill:url(#radial1);" d="M 6.945312 39.074219 L 2.976562 39.074219 L 2.976562 41.058594 L 6.945312 41.058594 Z M 6.945312 39.074219 "/>
<path style=" stroke:none;fill-rule:nonzero;fill:url(#radial2);" d="M 6.945312 39.074219 L 2.976562 39.074219 L 2.976562 37.089844 L 6.945312 37.089844 Z M 6.945312 39.074219 "/>
<path style=" stroke:none;fill-rule:nonzero;fill:url(#radial3);" d="M 40.683594 39.074219 L 44.652344 39.074219 L 44.652344 41.058594 L 40.683594 41.058594 Z M 40.683594 39.074219 "/>
<path style=" stroke:none;fill-rule:nonzero;fill:url(#linear2);" d="M 5.953125 9.304688 L 41.675781 9.304688 C 42.769531 9.304688 43.660156 10.195312 43.660156 11.292969 L 43.660156 37.089844 C 43.660156 38.183594 42.769531 39.074219 41.675781 39.074219 L 5.953125 39.074219 C 4.855469 39.074219 3.96875 38.183594 3.96875 37.089844 L 3.96875 11.292969 C 3.96875 10.195312 4.855469 9.304688 5.953125 9.304688 Z M 5.953125 9.304688 "/>
<path style=" stroke:none;fill-rule:nonzero;fill:rgb(100%,100%,100%);fill-opacity:0.588235;" d="M 5.953125 9.304688 C 4.855469 9.304688 3.96875 10.191406 3.96875 11.292969 L 3.96875 11.785156 C 3.96875 10.6875 4.855469 9.800781 5.953125 9.800781 L 41.675781 9.800781 C 42.777344 9.800781 43.660156 10.6875 43.660156 11.785156 L 43.660156 11.292969 C 43.660156 10.191406 42.777344 9.304688 41.675781 9.304688 Z M 5.953125 9.304688 "/>
<path style=" stroke:none;fill-rule:nonzero;fill:rgb(0%,0%,0%);fill-opacity:0.235294;" d="M 3.96875 36.609375 L 3.96875 37.089844 C 3.96875 38.1875 4.855469 39.074219 5.953125 39.074219 L 41.675781 39.074219 C 42.777344 39.074219 43.660156 38.1875 43.660156 37.089844 L 43.660156 36.609375 C 43.660156 37.710938 42.777344 38.597656 41.675781 38.597656 L 5.953125 38.597656 C 4.855469 38.597656 3.96875 37.710938 3.96875 36.609375 Z M 3.96875 36.609375 "/>
<path style="fill:none;stroke-width:3;stroke-linecap:round;stroke-linejoin:round;stroke:rgb(12.941177%,12.941177%,12.941177%);stroke-opacity:1;stroke-miterlimit:4;" d="M 63.493907 -115.759414 L 444.499011 -115.759414 C 456.164558 -115.759414 465.663647 -106.260326 465.663647 -94.594779 L 465.663647 180.587147 C 465.663647 192.294357 456.164558 201.751783 444.499011 201.751783 L 63.493907 201.751783 C 51.82836 201.751783 42.329271 192.294357 42.329271 180.587147 L 42.329271 -94.594779 C 42.329271 -106.260326 51.82836 -115.759414 63.493907 -115.759414 Z M 63.493907 -115.759414 " transform="matrix(0.093759,0,0,0.093759,0,20.158174)"/>
<path style=" stroke:none;fill-rule:nonzero;fill:url(#linear3);" d="M 32 15.753906 C 30.628906 15.753906 29.519531 16.859375 29.519531 18.238281 L 29.519531 32.128906 L 34.480469 32.128906 C 35.855469 32.128906 36.964844 31.023438 36.964844 29.648438 L 36.964844 15.753906 Z M 32 15.753906 "/>
<path style=" stroke:none;fill-rule:nonzero;fill:url(#linear4);" d="M 22.574219 15.753906 C 21.199219 15.753906 20.09375 16.859375 20.09375 18.238281 L 20.09375 32.128906 L 25.054688 32.128906 C 26.429688 32.128906 27.535156 31.023438 27.535156 29.648438 L 27.535156 15.753906 Z M 22.574219 15.753906 "/>
<path style=" stroke:none;fill-rule:nonzero;fill:url(#linear5);" d="M 13.148438 15.753906 C 11.773438 15.753906 10.667969 16.859375 10.667969 18.238281 L 10.667969 32.128906 L 15.628906 32.128906 C 17.003906 32.128906 18.109375 31.023438 18.109375 29.648438 L 18.109375 15.753906 Z M 13.148438 15.753906 "/>
<path style="fill:none;stroke-width:3;stroke-linecap:round;stroke-linejoin:round;stroke:rgb(12.941177%,12.941177%,12.941177%);stroke-opacity:1;stroke-miterlimit:4;" d="M 341.300581 -46.974349 C 326.676984 -46.974349 314.844786 -35.183813 314.844786 -20.476891 L 314.844786 127.675558 L 367.798038 127.675558 C 382.421635 127.675558 394.253833 115.885023 394.253833 101.219764 L 394.253833 -46.974349 Z M 341.300581 -46.974349 " transform="matrix(0.093759,0,0,0.093759,0,20.158174)"/>
<path style="fill:none;stroke-width:3;stroke-linecap:round;stroke-linejoin:round;stroke:rgb(12.941177%,12.941177%,12.941177%);stroke-opacity:1;stroke-miterlimit:4;" d="M 240.768562 -46.974349 C 226.103302 -46.974349 214.312767 -35.183813 214.312767 -20.476891 L 214.312767 127.675558 L 267.224356 127.675558 C 281.889616 127.675558 293.680151 115.885023 293.680151 101.219764 L 293.680151 -46.974349 Z M 240.768562 -46.974349 " transform="matrix(0.093759,0,0,0.093759,0,20.158174)"/>
<path style="fill:none;stroke-width:3;stroke-linecap:round;stroke-linejoin:round;stroke:rgb(12.941177%,12.941177%,12.941177%);stroke-opacity:1;stroke-miterlimit:4;" d="M 140.236542 -46.974349 C 125.571283 -46.974349 113.780748 -35.183813 113.780748 -20.476891 L 113.780748 127.675558 L 166.692337 127.675558 C 181.357596 127.675558 193.148132 115.885023 193.148132 101.219764 L 193.148132 -46.974349 Z M 140.236542 -46.974349 " transform="matrix(0.093759,0,0,0.093759,0,20.158174)"/>
</g>
</svg>
